( pcb2gcode 2.5.0 )
( Software-independent Gcode )

G94 ( Millimeters per minute feed rate. )
G21 ( Units == Millimeters. )

G90 ( Absolute coordinates. )
G00 S3000 ( RPM spindle speed. )
G01 F100.00000 ( Feedrate. )


G00 Z2.00000 (Retract to tool change height)
T1
M5      (Spindle stop.)
G04 P1.00000 (Wait for spindle to stop)
(MSG, Change tool bit to cutter diameter 2.00000mm)
M0      (Temporary machine stop.)
M3 ( Spindle on clockwise. )
G04 P1.00000 (Wait for spindle to get up to speed)
G04 P0 ( dwell for no time -- G64 should not smooth over this point )
G00 Z2.00000 ( retract )

G00 X-1.00000 Y0.00000 ( rapid move to begin. )
G01 Z-0.20000 F50.00000 ( plunge. )
G04 P0 ( dwell for no time -- G64 should not smooth over this point )
G01 F100.00000
G01 X-0.99980 Y6.76519
G01 X-0.99971 Y9.76519
G01 X-0.99952 Y16.53037
G01 X-0.98847 Y16.65140
G01 X-0.96279 Y16.77020
G01 X-0.91895 Y16.89433
G01 X-0.86431 Y17.00291
G01 X-0.79692 Y17.10403
G01 X-0.71067 Y17.20350
G01 X-0.62006 Y17.28452
G01 X-0.52032 Y17.35394
G01 X-0.39433 Y17.41894
G01 X-0.27021 Y17.46278
G01 X-0.14140 Y17.48993
G01 X-0.01011 Y17.49994
G01 X11.49999 Y17.49994
G01 X14.49999 Y17.49994
G01 X26.01008 Y17.49994
G01 X26.14138 Y17.48993
G01 X26.26043 Y17.46547
G01 X26.37564 Y17.42674
G01 X26.49410 Y17.36936
G01 X26.60404 Y17.29692
G01 X26.69626 Y17.21775
G01 X26.77820 Y17.12798
G01 X26.85395 Y17.02031
G01 X26.91491 Y16.90362
G01 X26.96279 Y16.77020
G01 X26.98994 Y16.64139
G01 X26.99995 Y16.51010
G01 X26.99987 Y9.74493
G01 X26.99984 Y6.74493
G01 X26.99977 Y-0.02024
G01 X26.98994 Y-0.14140
G01 X26.96548 Y-0.26043
G01 X26.92674 Y-0.37564
G01 X26.86936 Y-0.49413
G01 X26.79692 Y-0.60404
G01 X26.71775 Y-0.69626
G01 X26.62799 Y-0.77821
G01 X26.52029 Y-0.85395
G01 X26.39433 Y-0.91895
G01 X26.27020 Y-0.96279
G01 X26.14138 Y-0.98994
G01 X26.01008 Y-0.99995
G01 X14.48985 Y-0.99976
G01 X11.48985 Y-0.99971
G01 X-0.03038 Y-0.99952
G01 X-0.12131 Y-0.99261
G01 X-0.22111 Y-0.97523
G01 X-0.30902 Y-0.95105
G01 X-0.40361 Y-0.91491
G01 X-0.48529 Y-0.87434
G01 X-0.57125 Y-0.82075
G01 X-0.65136 Y-0.75875
G01 X-0.71775 Y-0.69626
G01 X-0.77821 Y-0.62799
G01 X-0.83774 Y-0.54605
G01 X-0.88400 Y-0.46746
G01 X-0.92674 Y-0.37564
G01 X-0.95712 Y-0.28966
G01 X-0.98151 Y-0.19134
G01 X-0.99487 Y-0.10117
G01 X-1.00000 Y0.00000
G01 Z-0.40000 F50.00000 ( plunge. )
G04 P0 ( dwell for no time -- G64 should not smooth over this point )
G01 F100.00000
G01 X-0.99980 Y6.76519
G01 X-0.99971 Y9.76519
G01 X-0.99952 Y16.53037
G01 X-0.98847 Y16.65140
G01 X-0.96279 Y16.77020
G01 X-0.91895 Y16.89433
G01 X-0.86431 Y17.00291
G01 X-0.79692 Y17.10403
G01 X-0.71067 Y17.20350
G01 X-0.62006 Y17.28452
G01 X-0.52032 Y17.35394
G01 X-0.39433 Y17.41894
G01 X-0.27021 Y17.46278
G01 X-0.14140 Y17.48993
G01 X-0.01011 Y17.49994
G01 X11.49999 Y17.49994
G01 X14.49999 Y17.49994
G01 X26.01008 Y17.49994
G01 X26.14138 Y17.48993
G01 X26.26043 Y17.46547
G01 X26.37564 Y17.42674
G01 X26.49410 Y17.36936
G01 X26.60404 Y17.29692
G01 X26.69626 Y17.21775
G01 X26.77820 Y17.12798
G01 X26.85395 Y17.02031
G01 X26.91491 Y16.90362
G01 X26.96279 Y16.77020
G01 X26.98994 Y16.64139
G01 X26.99995 Y16.51010
G01 X26.99987 Y9.74493
G01 X26.99984 Y6.74493
G01 X26.99977 Y-0.02024
G01 X26.98994 Y-0.14140
G01 X26.96548 Y-0.26043
G01 X26.92674 Y-0.37564
G01 X26.86936 Y-0.49413
G01 X26.79692 Y-0.60404
G01 X26.71775 Y-0.69626
G01 X26.62799 Y-0.77821
G01 X26.52029 Y-0.85395
G01 X26.39433 Y-0.91895
G01 X26.27020 Y-0.96279
G01 X26.14138 Y-0.98994
G01 X26.01008 Y-0.99995
G01 X14.48985 Y-0.99976
G01 X11.48985 Y-0.99971
G01 X-0.03038 Y-0.99952
G01 X-0.12131 Y-0.99261
G01 X-0.22111 Y-0.97523
G01 X-0.30902 Y-0.95105
G01 X-0.40361 Y-0.91491
G01 X-0.48529 Y-0.87434
G01 X-0.57125 Y-0.82075
G01 X-0.65136 Y-0.75875
G01 X-0.71775 Y-0.69626
G01 X-0.77821 Y-0.62799
G01 X-0.83774 Y-0.54605
G01 X-0.88400 Y-0.46746
G01 X-0.92674 Y-0.37564
G01 X-0.95712 Y-0.28966
G01 X-0.98151 Y-0.19134
G01 X-0.99487 Y-0.10117
G01 X-1.00000 Y0.00000
G01 Z-0.60000 F50.00000 ( plunge. )
G04 P0 ( dwell for no time -- G64 should not smooth over this point )
G01 F100.00000
G01 X-0.99980 Y6.76519
G01 X-0.99971 Y9.76519
G01 X-0.99952 Y16.53037
G01 X-0.98847 Y16.65140
G01 X-0.96279 Y16.77020
G01 X-0.91895 Y16.89433
G01 X-0.86431 Y17.00291
G01 X-0.79692 Y17.10403
G01 X-0.71067 Y17.20350
G01 X-0.62006 Y17.28452
G01 X-0.52032 Y17.35394
G01 X-0.39433 Y17.41894
G01 X-0.27021 Y17.46278
G01 X-0.14140 Y17.48993
G01 X-0.01011 Y17.49994
G01 X11.49999 Y17.49994
G01 X14.49999 Y17.49994
G01 X26.01008 Y17.49994
G01 X26.14138 Y17.48993
G01 X26.26043 Y17.46547
G01 X26.37564 Y17.42674
G01 X26.49410 Y17.36936
G01 X26.60404 Y17.29692
G01 X26.69626 Y17.21775
G01 X26.77820 Y17.12798
G01 X26.85395 Y17.02031
G01 X26.91491 Y16.90362
G01 X26.96279 Y16.77020
G01 X26.98994 Y16.64139
G01 X26.99995 Y16.51010
G01 X26.99987 Y9.74493
G01 X26.99984 Y6.74493
G01 X26.99977 Y-0.02024
G01 X26.98994 Y-0.14140
G01 X26.96548 Y-0.26043
G01 X26.92674 Y-0.37564
G01 X26.86936 Y-0.49413
G01 X26.79692 Y-0.60404
G01 X26.71775 Y-0.69626
G01 X26.62799 Y-0.77821
G01 X26.52029 Y-0.85395
G01 X26.39433 Y-0.91895
G01 X26.27020 Y-0.96279
G01 X26.14138 Y-0.98994
G01 X26.01008 Y-0.99995
G01 X14.48985 Y-0.99976
G01 X11.48985 Y-0.99971
G01 X-0.03038 Y-0.99952
G01 X-0.12131 Y-0.99261
G01 X-0.22111 Y-0.97523
G01 X-0.30902 Y-0.95105
G01 X-0.40361 Y-0.91491
G01 X-0.48529 Y-0.87434
G01 X-0.57125 Y-0.82075
G01 X-0.65136 Y-0.75875
G01 X-0.71775 Y-0.69626
G01 X-0.77821 Y-0.62799
G01 X-0.83774 Y-0.54605
G01 X-0.88400 Y-0.46746
G01 X-0.92674 Y-0.37564
G01 X-0.95712 Y-0.28966
G01 X-0.98151 Y-0.19134
G01 X-0.99487 Y-0.10117
G01 X-1.00000 Y0.00000
G01 Z-0.80000 F50.00000 ( plunge. )
G04 P0 ( dwell for no time -- G64 should not smooth over this point )
G01 F100.00000
G01 X-0.99980 Y6.76519
G00 Z-0.60000
G01 X-0.99971 Y9.76519
G01 Z-0.80000 F50.00000
G01 F100.00000
G01 X-0.99952 Y16.53037
G01 X-0.98847 Y16.65140
G01 X-0.96279 Y16.77020
G01 X-0.91895 Y16.89433
G01 X-0.86431 Y17.00291
G01 X-0.79692 Y17.10403
G01 X-0.71067 Y17.20350
G01 X-0.62006 Y17.28452
G01 X-0.52032 Y17.35394
G01 X-0.39433 Y17.41894
G01 X-0.27021 Y17.46278
G01 X-0.14140 Y17.48993
G01 X-0.01011 Y17.49994
G01 X11.49999 Y17.49994
G00 Z-0.60000
G01 X14.49999 Y17.49994
G01 Z-0.80000 F50.00000
G01 F100.00000
G01 X26.01008 Y17.49994
G01 X26.14138 Y17.48993
G01 X26.26043 Y17.46547
G01 X26.37564 Y17.42674
G01 X26.49410 Y17.36936
G01 X26.60404 Y17.29692
G01 X26.69626 Y17.21775
G01 X26.77820 Y17.12798
G01 X26.85395 Y17.02031
G01 X26.91491 Y16.90362
G01 X26.96279 Y16.77020
G01 X26.98994 Y16.64139
G01 X26.99995 Y16.51010
G01 X26.99987 Y9.74493
G00 Z-0.60000
G01 X26.99984 Y6.74493
G01 Z-0.80000 F50.00000
G01 F100.00000
G01 X26.99977 Y-0.02024
G01 X26.98994 Y-0.14140
G01 X26.96548 Y-0.26043
G01 X26.92674 Y-0.37564
G01 X26.86936 Y-0.49413
G01 X26.79692 Y-0.60404
G01 X26.71775 Y-0.69626
G01 X26.62799 Y-0.77821
G01 X26.52029 Y-0.85395
G01 X26.39433 Y-0.91895
G01 X26.27020 Y-0.96279
G01 X26.14138 Y-0.98994
G01 X26.01008 Y-0.99995
G01 X14.48985 Y-0.99976
G00 Z-0.60000
G01 X11.48985 Y-0.99971
G01 Z-0.80000 F50.00000
G01 F100.00000
G01 X-0.03038 Y-0.99952
G01 X-0.12131 Y-0.99261
G01 X-0.22111 Y-0.97523
G01 X-0.30902 Y-0.95105
G01 X-0.40361 Y-0.91491
G01 X-0.48529 Y-0.87434
G01 X-0.57125 Y-0.82075
G01 X-0.65136 Y-0.75875
G01 X-0.71775 Y-0.69626
G01 X-0.77821 Y-0.62799
G01 X-0.83774 Y-0.54605
G01 X-0.88400 Y-0.46746
G01 X-0.92674 Y-0.37564
G01 X-0.95712 Y-0.28966
G01 X-0.98151 Y-0.19134
G01 X-0.99487 Y-0.10117
G01 X-1.00000 Y0.00000
G01 Z-1.00000 F50.00000 ( plunge. )
G04 P0 ( dwell for no time -- G64 should not smooth over this point )
G01 F100.00000
G01 X-0.99980 Y6.76519
G00 Z-0.60000
G01 X-0.99971 Y9.76519
G01 Z-1.00000 F50.00000
G01 F100.00000
G01 X-0.99952 Y16.53037
G01 X-0.98847 Y16.65140
G01 X-0.96279 Y16.77020
G01 X-0.91895 Y16.89433
G01 X-0.86431 Y17.00291
G01 X-0.79692 Y17.10403
G01 X-0.71067 Y17.20350
G01 X-0.62006 Y17.28452
G01 X-0.52032 Y17.35394
G01 X-0.39433 Y17.41894
G01 X-0.27021 Y17.46278
G01 X-0.14140 Y17.48993
G01 X-0.01011 Y17.49994
G01 X11.49999 Y17.49994
G00 Z-0.60000
G01 X14.49999 Y17.49994
G01 Z-1.00000 F50.00000
G01 F100.00000
G01 X26.01008 Y17.49994
G01 X26.14138 Y17.48993
G01 X26.26043 Y17.46547
G01 X26.37564 Y17.42674
G01 X26.49410 Y17.36936
G01 X26.60404 Y17.29692
G01 X26.69626 Y17.21775
G01 X26.77820 Y17.12798
G01 X26.85395 Y17.02031
G01 X26.91491 Y16.90362
G01 X26.96279 Y16.77020
G01 X26.98994 Y16.64139
G01 X26.99995 Y16.51010
G01 X26.99987 Y9.74493
G00 Z-0.60000
G01 X26.99984 Y6.74493
G01 Z-1.00000 F50.00000
G01 F100.00000
G01 X26.99977 Y-0.02024
G01 X26.98994 Y-0.14140
G01 X26.96548 Y-0.26043
G01 X26.92674 Y-0.37564
G01 X26.86936 Y-0.49413
G01 X26.79692 Y-0.60404
G01 X26.71775 Y-0.69626
G01 X26.62799 Y-0.77821
G01 X26.52029 Y-0.85395
G01 X26.39433 Y-0.91895
G01 X26.27020 Y-0.96279
G01 X26.14138 Y-0.98994
G01 X26.01008 Y-0.99995
G01 X14.48985 Y-0.99976
G00 Z-0.60000
G01 X11.48985 Y-0.99971
G01 Z-1.00000 F50.00000
G01 F100.00000
G01 X-0.03038 Y-0.99952
G01 X-0.12131 Y-0.99261
G01 X-0.22111 Y-0.97523
G01 X-0.30902 Y-0.95105
G01 X-0.40361 Y-0.91491
G01 X-0.48529 Y-0.87434
G01 X-0.57125 Y-0.82075
G01 X-0.65136 Y-0.75875
G01 X-0.71775 Y-0.69626
G01 X-0.77821 Y-0.62799
G01 X-0.83774 Y-0.54605
G01 X-0.88400 Y-0.46746
G01 X-0.92674 Y-0.37564
G01 X-0.95712 Y-0.28966
G01 X-0.98151 Y-0.19134
G01 X-0.99487 Y-0.10117
G01 X-1.00000 Y0.00000
G01 Z-1.20000 F50.00000 ( plunge. )
G04 P0 ( dwell for no time -- G64 should not smooth over this point )
G01 F100.00000
G01 X-0.99980 Y6.76519
G00 Z-0.60000
G01 X-0.99971 Y9.76519
G01 Z-1.20000 F50.00000
G01 F100.00000
G01 X-0.99952 Y16.53037
G01 X-0.98847 Y16.65140
G01 X-0.96279 Y16.77020
G01 X-0.91895 Y16.89433
G01 X-0.86431 Y17.00291
G01 X-0.79692 Y17.10403
G01 X-0.71067 Y17.20350
G01 X-0.62006 Y17.28452
G01 X-0.52032 Y17.35394
G01 X-0.39433 Y17.41894
G01 X-0.27021 Y17.46278
G01 X-0.14140 Y17.48993
G01 X-0.01011 Y17.49994
G01 X11.49999 Y17.49994
G00 Z-0.60000
G01 X14.49999 Y17.49994
G01 Z-1.20000 F50.00000
G01 F100.00000
G01 X26.01008 Y17.49994
G01 X26.14138 Y17.48993
G01 X26.26043 Y17.46547
G01 X26.37564 Y17.42674
G01 X26.49410 Y17.36936
G01 X26.60404 Y17.29692
G01 X26.69626 Y17.21775
G01 X26.77820 Y17.12798
G01 X26.85395 Y17.02031
G01 X26.91491 Y16.90362
G01 X26.96279 Y16.77020
G01 X26.98994 Y16.64139
G01 X26.99995 Y16.51010
G01 X26.99987 Y9.74493
G00 Z-0.60000
G01 X26.99984 Y6.74493
G01 Z-1.20000 F50.00000
G01 F100.00000
G01 X26.99977 Y-0.02024
G01 X26.98994 Y-0.14140
G01 X26.96548 Y-0.26043
G01 X26.92674 Y-0.37564
G01 X26.86936 Y-0.49413
G01 X26.79692 Y-0.60404
G01 X26.71775 Y-0.69626
G01 X26.62799 Y-0.77821
G01 X26.52029 Y-0.85395
G01 X26.39433 Y-0.91895
G01 X26.27020 Y-0.96279
G01 X26.14138 Y-0.98994
G01 X26.01008 Y-0.99995
G01 X14.48985 Y-0.99976
G00 Z-0.60000
G01 X11.48985 Y-0.99971
G01 Z-1.20000 F50.00000
G01 F100.00000
G01 X-0.03038 Y-0.99952
G01 X-0.12131 Y-0.99261
G01 X-0.22111 Y-0.97523
G01 X-0.30902 Y-0.95105
G01 X-0.40361 Y-0.91491
G01 X-0.48529 Y-0.87434
G01 X-0.57125 Y-0.82075
G01 X-0.65136 Y-0.75875
G01 X-0.71775 Y-0.69626
G01 X-0.77821 Y-0.62799
G01 X-0.83774 Y-0.54605
G01 X-0.88400 Y-0.46746
G01 X-0.92674 Y-0.37564
G01 X-0.95712 Y-0.28966
G01 X-0.98151 Y-0.19134
G01 X-0.99487 Y-0.10117
G01 X-1.00000 Y0.00000

G04 P0 ( dwell for no time -- G64 should not smooth over this point )
G00 Z2.000000 ( retract )

M5 ( Spindle off. )
G04 P1.000000
M9 ( Coolant off. )
M2 ( Program end. )

