( pcb2gcode 2.5.0 )
( Software-independent Gcode )

G94 ( Millimeters per minute feed rate. )
G21 ( Units == Millimeters. )

G90 ( Absolute coordinates. )
G00 S3000 ( RPM spindle speed. )
G01 F100.00000 ( Feedrate. )


G00 Z2.00000 (Retract to tool change height)
T1
M5      (Spindle stop.)
G04 P1.00000 (Wait for spindle to stop)
(MSG, Change tool bit to cutter diameter 2.00000mm)
M0      (Temporary machine stop.)
M3 ( Spindle on clockwise. )
G04 P1.00000 (Wait for spindle to get up to speed)
G04 P0 ( dwell for no time -- G64 should not smooth over this point )
G00 Z2.00000 ( retract )

G00 X-1.00000 Y0.00000 ( rapid move to begin. )
G01 Z-0.20000 F50.00000 ( plunge. )
G04 P0 ( dwell for no time -- G64 should not smooth over this point )
G01 F100.00000
G01 X-0.99965 Y6.77025
G01 X-0.99950 Y9.77025
G01 X-0.99916 Y16.54051
G01 X-0.98339 Y16.68137
G01 X-0.94785 Y16.81861
G01 X-0.89329 Y16.94945
G01 X-0.82075 Y17.07124
G01 X-0.73172 Y17.18158
G01 X-0.62799 Y17.27820
G01 X-0.51163 Y17.35917
G01 X-0.38501 Y17.42288
G01 X-0.28966 Y17.45712
G01 X-0.20129 Y17.47952
G01 X-0.10117 Y17.49486
G01 X0.00000 Y17.49999
G01 X17.75505 Y17.49997
G01 X20.75505 Y17.49996
G01 X38.51011 Y17.49994
G01 X38.65141 Y17.48846
G01 X38.78966 Y17.45712
G01 X38.86622 Y17.43050
G01 X38.93127 Y17.40220
G01 X39.05451 Y17.33215
G01 X39.12006 Y17.28452
G01 X39.17412 Y17.23860
G01 X39.27178 Y17.13583
G01 X39.35395 Y17.02031
G01 X39.39329 Y16.94945
G01 X39.42288 Y16.88501
G01 X39.45712 Y16.78965
G01 X39.47952 Y16.70129
G01 X39.49487 Y16.60116
G01 X39.50000 Y16.49999
G01 X39.49980 Y9.73481
G01 X39.49971 Y6.73481
G01 X39.49951 Y-0.03038
G01 X39.48519 Y-0.17142
G01 X39.45105 Y-0.30902
G01 X39.39779 Y-0.44039
G01 X39.32649 Y-0.56291
G01 X39.27820 Y-0.62799
G01 X39.23172 Y-0.68158
G01 X39.12799 Y-0.77821
G01 X39.01163 Y-0.85918
G01 X38.88501 Y-0.92288
G01 X38.78966 Y-0.95712
G01 X38.70129 Y-0.97953
G01 X38.60117 Y-0.99487
G01 X38.50000 Y-1.00000
G01 X20.73988 Y-0.99989
G01 X17.73988 Y-0.99987
G01 X-0.02024 Y-0.99977
G01 X-0.12131 Y-0.99261
G01 X-0.21120 Y-0.97742
G01 X-0.30902 Y-0.95105
G01 X-0.39433 Y-0.91895
G01 X-0.48529 Y-0.87434
G01 X-0.56291 Y-0.82649
G01 X-0.64364 Y-0.76530
G01 X-0.71067 Y-0.70350
G01 X-0.77821 Y-0.62799
G01 X-0.83774 Y-0.54605
G01 X-0.88400 Y-0.46746
G01 X-0.92674 Y-0.37564
G01 X-0.95712 Y-0.28966
G01 X-0.98151 Y-0.19134
G01 X-0.99487 Y-0.10117
G01 X-1.00000 Y0.00000
G01 Z-0.40000 F50.00000 ( plunge. )
G04 P0 ( dwell for no time -- G64 should not smooth over this point )
G01 F100.00000
G01 X-0.99965 Y6.77025
G01 X-0.99950 Y9.77025
G01 X-0.99916 Y16.54051
G01 X-0.98339 Y16.68137
G01 X-0.94785 Y16.81861
G01 X-0.89329 Y16.94945
G01 X-0.82075 Y17.07124
G01 X-0.73172 Y17.18158
G01 X-0.62799 Y17.27820
G01 X-0.51163 Y17.35917
G01 X-0.38501 Y17.42288
G01 X-0.28966 Y17.45712
G01 X-0.20129 Y17.47952
G01 X-0.10117 Y17.49486
G01 X0.00000 Y17.49999
G01 X17.75505 Y17.49997
G01 X20.75505 Y17.49996
G01 X38.51011 Y17.49994
G01 X38.65141 Y17.48846
G01 X38.78966 Y17.45712
G01 X38.86622 Y17.43050
G01 X38.93127 Y17.40220
G01 X39.05451 Y17.33215
G01 X39.12006 Y17.28452
G01 X39.17412 Y17.23860
G01 X39.27178 Y17.13583
G01 X39.35395 Y17.02031
G01 X39.39329 Y16.94945
G01 X39.42288 Y16.88501
G01 X39.45712 Y16.78965
G01 X39.47952 Y16.70129
G01 X39.49487 Y16.60116
G01 X39.50000 Y16.49999
G01 X39.49980 Y9.73481
G01 X39.49971 Y6.73481
G01 X39.49951 Y-0.03038
G01 X39.48519 Y-0.17142
G01 X39.45105 Y-0.30902
G01 X39.39779 Y-0.44039
G01 X39.32649 Y-0.56291
G01 X39.27820 Y-0.62799
G01 X39.23172 Y-0.68158
G01 X39.12799 Y-0.77821
G01 X39.01163 Y-0.85918
G01 X38.88501 Y-0.92288
G01 X38.78966 Y-0.95712
G01 X38.70129 Y-0.97953
G01 X38.60117 Y-0.99487
G01 X38.50000 Y-1.00000
G01 X20.73988 Y-0.99989
G01 X17.73988 Y-0.99987
G01 X-0.02024 Y-0.99977
G01 X-0.12131 Y-0.99261
G01 X-0.21120 Y-0.97742
G01 X-0.30902 Y-0.95105
G01 X-0.39433 Y-0.91895
G01 X-0.48529 Y-0.87434
G01 X-0.56291 Y-0.82649
G01 X-0.64364 Y-0.76530
G01 X-0.71067 Y-0.70350
G01 X-0.77821 Y-0.62799
G01 X-0.83774 Y-0.54605
G01 X-0.88400 Y-0.46746
G01 X-0.92674 Y-0.37564
G01 X-0.95712 Y-0.28966
G01 X-0.98151 Y-0.19134
G01 X-0.99487 Y-0.10117
G01 X-1.00000 Y0.00000
G01 Z-0.60000 F50.00000 ( plunge. )
G04 P0 ( dwell for no time -- G64 should not smooth over this point )
G01 F100.00000
G01 X-0.99965 Y6.77025
G01 X-0.99950 Y9.77025
G01 X-0.99916 Y16.54051
G01 X-0.98339 Y16.68137
G01 X-0.94785 Y16.81861
G01 X-0.89329 Y16.94945
G01 X-0.82075 Y17.07124
G01 X-0.73172 Y17.18158
G01 X-0.62799 Y17.27820
G01 X-0.51163 Y17.35917
G01 X-0.38501 Y17.42288
G01 X-0.28966 Y17.45712
G01 X-0.20129 Y17.47952
G01 X-0.10117 Y17.49486
G01 X0.00000 Y17.49999
G01 X17.75505 Y17.49997
G01 X20.75505 Y17.49996
G01 X38.51011 Y17.49994
G01 X38.65141 Y17.48846
G01 X38.78966 Y17.45712
G01 X38.86622 Y17.43050
G01 X38.93127 Y17.40220
G01 X39.05451 Y17.33215
G01 X39.12006 Y17.28452
G01 X39.17412 Y17.23860
G01 X39.27178 Y17.13583
G01 X39.35395 Y17.02031
G01 X39.39329 Y16.94945
G01 X39.42288 Y16.88501
G01 X39.45712 Y16.78965
G01 X39.47952 Y16.70129
G01 X39.49487 Y16.60116
G01 X39.50000 Y16.49999
G01 X39.49980 Y9.73481
G01 X39.49971 Y6.73481
G01 X39.49951 Y-0.03038
G01 X39.48519 Y-0.17142
G01 X39.45105 Y-0.30902
G01 X39.39779 Y-0.44039
G01 X39.32649 Y-0.56291
G01 X39.27820 Y-0.62799
G01 X39.23172 Y-0.68158
G01 X39.12799 Y-0.77821
G01 X39.01163 Y-0.85918
G01 X38.88501 Y-0.92288
G01 X38.78966 Y-0.95712
G01 X38.70129 Y-0.97953
G01 X38.60117 Y-0.99487
G01 X38.50000 Y-1.00000
G01 X20.73988 Y-0.99989
G01 X17.73988 Y-0.99987
G01 X-0.02024 Y-0.99977
G01 X-0.12131 Y-0.99261
G01 X-0.21120 Y-0.97742
G01 X-0.30902 Y-0.95105
G01 X-0.39433 Y-0.91895
G01 X-0.48529 Y-0.87434
G01 X-0.56291 Y-0.82649
G01 X-0.64364 Y-0.76530
G01 X-0.71067 Y-0.70350
G01 X-0.77821 Y-0.62799
G01 X-0.83774 Y-0.54605
G01 X-0.88400 Y-0.46746
G01 X-0.92674 Y-0.37564
G01 X-0.95712 Y-0.28966
G01 X-0.98151 Y-0.19134
G01 X-0.99487 Y-0.10117
G01 X-1.00000 Y0.00000
G01 Z-0.80000 F50.00000 ( plunge. )
G04 P0 ( dwell for no time -- G64 should not smooth over this point )
G01 F100.00000
G01 X-0.99965 Y6.77025
G00 Z-0.60000
G01 X-0.99950 Y9.77025
G01 Z-0.80000 F50.00000
G01 F100.00000
G01 X-0.99916 Y16.54051
G01 X-0.98339 Y16.68137
G01 X-0.94785 Y16.81861
G01 X-0.89329 Y16.94945
G01 X-0.82075 Y17.07124
G01 X-0.73172 Y17.18158
G01 X-0.62799 Y17.27820
G01 X-0.51163 Y17.35917
G01 X-0.38501 Y17.42288
G01 X-0.28966 Y17.45712
G01 X-0.20129 Y17.47952
G01 X-0.10117 Y17.49486
G01 X0.00000 Y17.49999
G01 X17.75505 Y17.49997
G00 Z-0.60000
G01 X20.75505 Y17.49996
G01 Z-0.80000 F50.00000
G01 F100.00000
G01 X38.51011 Y17.49994
G01 X38.65141 Y17.48846
G01 X38.78966 Y17.45712
G01 X38.86622 Y17.43050
G01 X38.93127 Y17.40220
G01 X39.05451 Y17.33215
G01 X39.12006 Y17.28452
G01 X39.17412 Y17.23860
G01 X39.27178 Y17.13583
G01 X39.35395 Y17.02031
G01 X39.39329 Y16.94945
G01 X39.42288 Y16.88501
G01 X39.45712 Y16.78965
G01 X39.47952 Y16.70129
G01 X39.49487 Y16.60116
G01 X39.50000 Y16.49999
G01 X39.49980 Y9.73481
G00 Z-0.60000
G01 X39.49971 Y6.73481
G01 Z-0.80000 F50.00000
G01 F100.00000
G01 X39.49951 Y-0.03038
G01 X39.48519 Y-0.17142
G01 X39.45105 Y-0.30902
G01 X39.39779 Y-0.44039
G01 X39.32649 Y-0.56291
G01 X39.27820 Y-0.62799
G01 X39.23172 Y-0.68158
G01 X39.12799 Y-0.77821
G01 X39.01163 Y-0.85918
G01 X38.88501 Y-0.92288
G01 X38.78966 Y-0.95712
G01 X38.70129 Y-0.97953
G01 X38.60117 Y-0.99487
G01 X38.50000 Y-1.00000
G01 X20.73988 Y-0.99989
G00 Z-0.60000
G01 X17.73988 Y-0.99987
G01 Z-0.80000 F50.00000
G01 F100.00000
G01 X-0.02024 Y-0.99977
G01 X-0.12131 Y-0.99261
G01 X-0.21120 Y-0.97742
G01 X-0.30902 Y-0.95105
G01 X-0.39433 Y-0.91895
G01 X-0.48529 Y-0.87434
G01 X-0.56291 Y-0.82649
G01 X-0.64364 Y-0.76530
G01 X-0.71067 Y-0.70350
G01 X-0.77821 Y-0.62799
G01 X-0.83774 Y-0.54605
G01 X-0.88400 Y-0.46746
G01 X-0.92674 Y-0.37564
G01 X-0.95712 Y-0.28966
G01 X-0.98151 Y-0.19134
G01 X-0.99487 Y-0.10117
G01 X-1.00000 Y0.00000
G01 Z-1.00000 F50.00000 ( plunge. )
G04 P0 ( dwell for no time -- G64 should not smooth over this point )
G01 F100.00000
G01 X-0.99965 Y6.77025
G00 Z-0.60000
G01 X-0.99950 Y9.77025
G01 Z-1.00000 F50.00000
G01 F100.00000
G01 X-0.99916 Y16.54051
G01 X-0.98339 Y16.68137
G01 X-0.94785 Y16.81861
G01 X-0.89329 Y16.94945
G01 X-0.82075 Y17.07124
G01 X-0.73172 Y17.18158
G01 X-0.62799 Y17.27820
G01 X-0.51163 Y17.35917
G01 X-0.38501 Y17.42288
G01 X-0.28966 Y17.45712
G01 X-0.20129 Y17.47952
G01 X-0.10117 Y17.49486
G01 X0.00000 Y17.49999
G01 X17.75505 Y17.49997
G00 Z-0.60000
G01 X20.75505 Y17.49996
G01 Z-1.00000 F50.00000
G01 F100.00000
G01 X38.51011 Y17.49994
G01 X38.65141 Y17.48846
G01 X38.78966 Y17.45712
G01 X38.86622 Y17.43050
G01 X38.93127 Y17.40220
G01 X39.05451 Y17.33215
G01 X39.12006 Y17.28452
G01 X39.17412 Y17.23860
G01 X39.27178 Y17.13583
G01 X39.35395 Y17.02031
G01 X39.39329 Y16.94945
G01 X39.42288 Y16.88501
G01 X39.45712 Y16.78965
G01 X39.47952 Y16.70129
G01 X39.49487 Y16.60116
G01 X39.50000 Y16.49999
G01 X39.49980 Y9.73481
G00 Z-0.60000
G01 X39.49971 Y6.73481
G01 Z-1.00000 F50.00000
G01 F100.00000
G01 X39.49951 Y-0.03038
G01 X39.48519 Y-0.17142
G01 X39.45105 Y-0.30902
G01 X39.39779 Y-0.44039
G01 X39.32649 Y-0.56291
G01 X39.27820 Y-0.62799
G01 X39.23172 Y-0.68158
G01 X39.12799 Y-0.77821
G01 X39.01163 Y-0.85918
G01 X38.88501 Y-0.92288
G01 X38.78966 Y-0.95712
G01 X38.70129 Y-0.97953
G01 X38.60117 Y-0.99487
G01 X38.50000 Y-1.00000
G01 X20.73988 Y-0.99989
G00 Z-0.60000
G01 X17.73988 Y-0.99987
G01 Z-1.00000 F50.00000
G01 F100.00000
G01 X-0.02024 Y-0.99977
G01 X-0.12131 Y-0.99261
G01 X-0.21120 Y-0.97742
G01 X-0.30902 Y-0.95105
G01 X-0.39433 Y-0.91895
G01 X-0.48529 Y-0.87434
G01 X-0.56291 Y-0.82649
G01 X-0.64364 Y-0.76530
G01 X-0.71067 Y-0.70350
G01 X-0.77821 Y-0.62799
G01 X-0.83774 Y-0.54605
G01 X-0.88400 Y-0.46746
G01 X-0.92674 Y-0.37564
G01 X-0.95712 Y-0.28966
G01 X-0.98151 Y-0.19134
G01 X-0.99487 Y-0.10117
G01 X-1.00000 Y0.00000
G01 Z-1.20000 F50.00000 ( plunge. )
G04 P0 ( dwell for no time -- G64 should not smooth over this point )
G01 F100.00000
G01 X-0.99965 Y6.77025
G00 Z-0.60000
G01 X-0.99950 Y9.77025
G01 Z-1.20000 F50.00000
G01 F100.00000
G01 X-0.99916 Y16.54051
G01 X-0.98339 Y16.68137
G01 X-0.94785 Y16.81861
G01 X-0.89329 Y16.94945
G01 X-0.82075 Y17.07124
G01 X-0.73172 Y17.18158
G01 X-0.62799 Y17.27820
G01 X-0.51163 Y17.35917
G01 X-0.38501 Y17.42288
G01 X-0.28966 Y17.45712
G01 X-0.20129 Y17.47952
G01 X-0.10117 Y17.49486
G01 X0.00000 Y17.49999
G01 X17.75505 Y17.49997
G00 Z-0.60000
G01 X20.75505 Y17.49996
G01 Z-1.20000 F50.00000
G01 F100.00000
G01 X38.51011 Y17.49994
G01 X38.65141 Y17.48846
G01 X38.78966 Y17.45712
G01 X38.86622 Y17.43050
G01 X38.93127 Y17.40220
G01 X39.05451 Y17.33215
G01 X39.12006 Y17.28452
G01 X39.17412 Y17.23860
G01 X39.27178 Y17.13583
G01 X39.35395 Y17.02031
G01 X39.39329 Y16.94945
G01 X39.42288 Y16.88501
G01 X39.45712 Y16.78965
G01 X39.47952 Y16.70129
G01 X39.49487 Y16.60116
G01 X39.50000 Y16.49999
G01 X39.49980 Y9.73481
G00 Z-0.60000
G01 X39.49971 Y6.73481
G01 Z-1.20000 F50.00000
G01 F100.00000
G01 X39.49951 Y-0.03038
G01 X39.48519 Y-0.17142
G01 X39.45105 Y-0.30902
G01 X39.39779 Y-0.44039
G01 X39.32649 Y-0.56291
G01 X39.27820 Y-0.62799
G01 X39.23172 Y-0.68158
G01 X39.12799 Y-0.77821
G01 X39.01163 Y-0.85918
G01 X38.88501 Y-0.92288
G01 X38.78966 Y-0.95712
G01 X38.70129 Y-0.97953
G01 X38.60117 Y-0.99487
G01 X38.50000 Y-1.00000
G01 X20.73988 Y-0.99989
G00 Z-0.60000
G01 X17.73988 Y-0.99987
G01 Z-1.20000 F50.00000
G01 F100.00000
G01 X-0.02024 Y-0.99977
G01 X-0.12131 Y-0.99261
G01 X-0.21120 Y-0.97742
G01 X-0.30902 Y-0.95105
G01 X-0.39433 Y-0.91895
G01 X-0.48529 Y-0.87434
G01 X-0.56291 Y-0.82649
G01 X-0.64364 Y-0.76530
G01 X-0.71067 Y-0.70350
G01 X-0.77821 Y-0.62799
G01 X-0.83774 Y-0.54605
G01 X-0.88400 Y-0.46746
G01 X-0.92674 Y-0.37564
G01 X-0.95712 Y-0.28966
G01 X-0.98151 Y-0.19134
G01 X-0.99487 Y-0.10117
G01 X-1.00000 Y0.00000

G04 P0 ( dwell for no time -- G64 should not smooth over this point )
G00 Z2.000000 ( retract )

M5 ( Spindle off. )
G04 P1.000000
M9 ( Coolant off. )
M2 ( Program end. )

